assets/icons/qvision/photo_size_select_large.svg

<svg xmlns="http://www.w3.org/2000/svg" height="24" viewBox="0 0 24 24" width="24"><path d="M24 24H0V0h24v24z" fill="none"/><path d="M21 15h2v2h-2v-2zm0-4h2v2h-2v-2zm2 8h-2v2c1 0 2-1 2-2zM13 3h2v2h-2V3zm8 4h2v2h-2V7zm0-4v2h2c0-1-1-2-2-2zM1 7h2v2H1V7zm16-4h2v2h-2V3zm0 16h2v2h-2v-2zM3 3C2 3 1 4 1 5h2V3zm6 0h2v2H9V3zM5 3h2v2H5V3zm-4 8v8c0 1.1.9 2 2 2h12V11H1zm2 8l2.5-3.21 1.79 2.15 2.5-3.22L13 19H3z"/></svg>

<svg width="24" height="24" viewBox="0 0 24 24" fill="none" xmlns="http://www.w3.org/2000/svg">
<g clip-path="url(#clip0_147_3684)">
<path d="M21 15H23V17H21V15ZM21 11H23V13H21V11ZM23 19H21V21C22 21 23 20 23 19ZM13 3H15V5H13V3ZM21 7H23V9H21V7ZM21 3V5H23C23 4 22 3 21 3ZM1 7H3V9H1V7ZM17 3H19V5H17V3ZM17 19H19V21H17V19ZM3 3C2 3 1 4 1 5H3V3ZM9 3H11V5H9V3ZM5 3H7V5H5V3ZM1 11V19C1 20.1 1.9 21 3 21H15V11H1ZM3 19L5.5 15.79L7.29 17.94L9.79 14.72L13 19H3Z" fill="#323232"/>
</g>
<defs>
<clipPath id="clip0_147_3684">
<rect width="24" height="24" fill="white"/>
</clipPath>
</defs>
</svg>
